src/assets/images/ic_map_default.svg

<svg width="260" height="280" fill="none" xmlns="http://www.w3.org/2000/svg"><mask id="a" maskUnits="userSpaceOnUse" x="0" y="0" width="260" height="280"><path fill="#C4C4C4" d="M0 0h260v280H0z"/></mask><g mask="url(#a)"><path d="M-20.5-26H871v735H-20.5V-26z" fill="#F5F7FA"/><path fill-rule="evenodd" clip-rule="evenodd" d="M17.987-27v735h1V-27h-1zm15.988 735V-27h1v735h-1zm15.987 0V-27h1v735h-1zm-47.975.5v-735h1v735h-1zM65.95-27v735h1V-27h-1zm15.987 735V-27h1v735h-1zM97.924-27v735h1V-27h-1zm15.988 735V-27h1v735h-1zm15.987-735v735h1V-27h-1zm15.987 735V-27h1v735h-1zm15.988-735v735h1V-27h-1zm15.987 735V-27h1v735h-1zm15.988-735v735h1V-27h-1zm15.987 735V-27h1v735h-1zm15.987-735v735h1V-27h-1zm15.988 735V-27h1v735h-1zm15.987-735v735h1V-27h-1zm15.987 735V-27h1v735h-1zm15.987-735v735h1V-27h-1zm15.988 735V-27h1v735h-1zm15.987-735v735h1V-27h-1zm15.987 735V-27h1v735h-1zm15.988-735v735h1V-27h-1zm15.987 735V-27h1v735h-1zm15.987-735v735h1V-27h-1zm15.988 735V-27h1v735h-1zm15.987-735v735h1V-27h-1zm15.987 735V-27h1v735h-1zm15.988-735v735h1V-27h-1zm15.987 735V-27h1v735h-1zM481.62-27v735h1V-27h-1zm15.988 735V-27h1v735h-1zm15.988-735v735h1V-27h-1zm15.987 735V-27h1v735h-1zM545.57-27v735h1V-27h-1zm15.988 735V-27h1v735h-1zm15.987-735v735h1V-27h-1zm15.987 735V-27h1v735h-1zM609.52-27v735h1V-27h-1zm15.987 735V-27h1v735h-1zm15.987-735v735h1V-27h-1zm15.988 735V-27h1v735h-1zm15.987-735v735h1V-27h-1zm15.987 735V-27h1v735h-1zm15.988-735v735h1V-27h-1zm15.987 735V-27h1v735h-1zm15.987-735v735h1V-27h-1zm15.988 735V-27h1v735h-1zm15.987-735v735h1V-27h-1zm15.987 735V-27h1v735h-1zm15.987-735v735h1V-27h-1zm15.986 735V-27h1v735h-1zM833.34-27v735h1V-27h-1z" fill="#000" fill-opacity=".06"/><path fill-rule="evenodd" clip-rule="evenodd" d="M-15.5 708H842v-1H-15.5v1zm0-15.998H842v-1H-15.5v1zM842 676.005H-15.5v-1H842v1zm-857.5-15.998H842v-1H-15.5v1zM842 644.01H-15.5v-1H842v1zm-857.5-15.998H842v-1H-15.5v1zM842 612.015l-857.5-.001v-1l857.5.001v1zm-857.5-15.998H842v-1H-15.5v1zM842 580.019H-15.5v-1H842v1zm-857.5-15.997H842v-1H-15.5v1zM842 548.024H-15.5v-1H842v1zm-857.5-15.997H842v-1H-15.5v1zM842 516.029H-15.5v-1H842v1zm-857.5-15.998H842v-1H-15.5v1zM842 484.034H-15.5v-1H842v1zm-857.5-15.998H842v-1H-15.5v1zM842 452.039H-15.5v-1H842v1zm-857.5-15.998H842v-1H-15.5v1zM842 420.044H-15.5v-1H842v1zm-857.5-15.998H842v-1H-15.5v1zM842 388.048H-15.5v-1H842v1zm-857.5-15.997H842v-1H-15.5v1zM842 356.053H-15.5v-1H842v1zm-857.5-15.997H842v-1H-15.5v1zM842 324.058H-15.5v-1H842v1zM-15.5 308.06H842v-1H-15.5v1zM842 292.063H-15.5v-1H842v1zm-857.5-15.998H842v-1H-15.5v1zM842 260.068H-15.5v-1H842v1zM-15.5 244.07H842v-1H-15.5v1zM842 228.073H-15.5v-1H842v1zm-857.5-15.998H842v-1H-15.5v1zM842 196.077H-15.5v-1H842v1zM-15.5 180.08H842v-1H-15.5v1zM842 164.082H-15.5v-1H842v1zm-857.5-15.997H842v-1H-15.5v1zM842 132.087H-15.5v-1H842v1zm-857.5-15.998l857.5.001v-1l-857.5-.001v1zM842 100.092H-15.5v-1H842v1zM-15.5 84.094H842v-1H-15.5v1zM842 68.097H-15.5v-1H842v1zM-15.5 52.099H842v-1H-15.5v1zM842 36.102H-15.5v-1H842v1zM-15.5 20.104H842v-1H-15.5v1zM842 4.106H-15.5v-1H842v1zM-15.5-11.89H842v-1H-15.5v1z" fill="#000" fill-opacity=".06"/></g></svg>

<svg width="260" height="280" viewBox="0 0 260 280" fill="none" xmlns="http://www.w3.org/2000/svg">
<mask id="mask0" mask-type="alpha" maskUnits="userSpaceOnUse" x="0" y="0" width="260" height="280">
<rect width="260" height="280" fill="#C4C4C4"/>
</mask>
<g mask="url(#mask0)">
<path d="M-20.5 -26H871V709H-20.5V-26Z" fill="#F5F7FA"/>
<path fill-rule="evenodd" clip-rule="evenodd" d="M17.9873 -27L17.9873 708H18.9873L18.9873 -27H17.9873ZM33.9746 708L33.9746 -27H34.9746L34.9746 708H33.9746ZM49.9624 708L49.9625 -27H50.9625L50.9624 708H49.9624ZM1.9873 708.5L1.98734 -26.5L2.98734 -26.5L2.9873 708.5H1.9873ZM65.95 -27L65.95 708H66.95L66.95 -27H65.95ZM81.9373 708L81.9374 -27H82.9374L82.9373 708H81.9373ZM97.9245 -27L97.9244 708H98.9244L98.9245 -27H97.9245ZM113.912 708L113.912 -27H114.912L114.912 708H113.912ZM129.899 -27L129.899 708H130.899L130.899 -27H129.899ZM145.886 708L145.886 -27H146.886L146.886 708H145.886ZM161.874 -27L161.874 708H162.874L162.874 -27H161.874ZM177.861 708L177.861 -27H178.861L178.861 708H177.861ZM193.849 -27L193.849 708H194.849L194.849 -27H193.849ZM209.836 708L209.836 -27H210.836L210.836 708H209.836ZM225.823 -27L225.823 708H226.823L226.823 -27H225.823ZM241.811 708L241.811 -27H242.811L242.811 708H241.811ZM257.798 -27L257.798 708H258.798L258.798 -27H257.798ZM273.785 708L273.785 -27H274.785L274.785 708H273.785ZM289.772 -27L289.772 708H290.772L290.772 -27H289.772ZM305.76 708L305.76 -27H306.76L306.76 708H305.76ZM321.747 -27L321.747 708H322.747L322.747 -27H321.747ZM337.734 708L337.734 -27H338.734L338.734 708H337.734ZM353.722 -27L353.722 708H354.722L354.722 -27H353.722ZM369.709 708L369.709 -27H370.709L370.709 708H369.709ZM385.696 -27L385.696 708H386.696L386.696 -27H385.696ZM401.684 708L401.684 -27H402.684L402.684 708H401.684ZM417.671 -27L417.671 708H418.671L418.671 -27H417.671ZM433.658 708L433.658 -27H434.658L434.658 708H433.658ZM449.646 -27L449.646 708H450.646L450.646 -27H449.646ZM465.633 708L465.633 -27H466.633L466.633 708H465.633ZM481.62 -27L481.62 708H482.62L482.62 -27H481.62ZM497.608 708L497.608 -27H498.608L498.608 708H497.608ZM513.596 -27L513.596 708H514.596L514.596 -27H513.596ZM529.583 708L529.583 -27H530.583L530.583 708H529.583ZM545.57 -27L545.57 708H546.57L546.57 -27H545.57ZM561.558 708L561.558 -27H562.558L562.558 708H561.558ZM577.545 -27L577.545 708H578.545L578.545 -27H577.545ZM593.532 708L593.532 -27H594.532L594.532 708H593.532ZM609.52 -27L609.52 708H610.52L610.52 -27H609.52ZM625.507 708L625.507 -27H626.507L626.507 708H625.507ZM641.494 -27L641.494 708H642.494L642.494 -27H641.494ZM657.482 708L657.482 -27H658.482L658.482 708H657.482ZM673.469 -27L673.469 708H674.469L674.469 -27H673.469ZM689.456 708L689.456 -27H690.456L690.456 708H689.456ZM705.444 -27L705.444 708H706.444L706.444 -27H705.444ZM721.431 708L721.431 -27H722.431L722.431 708H721.431ZM737.418 -27L737.418 708H738.418L738.418 -27H737.418ZM753.406 708L753.406 -27H754.406L754.406 708H753.406ZM769.393 -27L769.393 708H770.393L770.393 -27H769.393ZM785.38 708L785.38 -27H786.38L786.38 708H785.38ZM801.367 -27L801.367 708H802.367L802.367 -27H801.367ZM817.353 708L817.353 -27H818.353L818.353 708H817.353ZM833.34 -27L833.34 708H834.34L834.34 -27H833.34Z" fill="black" fill-opacity="0.06"/>
<path fill-rule="evenodd" clip-rule="evenodd" d="M-15.5 708L842 708V707L-15.5 707V708ZM-15.5 692.002L842 692.002V691.002L-15.5 691.002V692.002ZM842 676.005L-15.5 676.005V675.005L842 675.005V676.005ZM-15.5 660.007L842 660.007V659.007L-15.5 659.007V660.007ZM842 644.01L-15.5 644.01V643.01L842 643.01V644.01ZM-15.5 628.012L842 628.012V627.012L-15.5 627.012V628.012ZM842 612.015L-15.5 612.014V611.014L842 611.015V612.015ZM-15.5 596.017L842 596.017V595.017L-15.5 595.017V596.017ZM842 580.019L-15.5 580.019V579.019L842 579.019V580.019ZM-15.5 564.022L842 564.022V563.022L-15.5 563.022V564.022ZM842 548.024L-15.5 548.024V547.024L842 547.024V548.024ZM-15.5 532.027L842 532.027V531.027L-15.5 531.027V532.027ZM842 516.029L-15.5 516.029V515.029L842 515.029V516.029ZM-15.5 500.031L842 500.031V499.031L-15.5 499.031V500.031ZM842 484.034L-15.5 484.034V483.034L842 483.034V484.034ZM-15.5 468.036L842 468.036V467.036L-15.5 467.036V468.036ZM842 452.039L-15.5 452.039V451.039L842 451.039V452.039ZM-15.5 436.041L842 436.041V435.041L-15.5 435.041V436.041ZM842 420.044L-15.5 420.044V419.044L842 419.044V420.044ZM-15.5 404.046L842 404.046V403.046L-15.5 403.046L-15.5 404.046ZM842 388.048L-15.5 388.048V387.048L842 387.048V388.048ZM-15.5 372.051L842 372.051V371.051L-15.5 371.051V372.051ZM842 356.053L-15.5 356.053V355.053L842 355.053V356.053ZM-15.5 340.056L842 340.056V339.056L-15.5 339.056V340.056ZM842 324.058L-15.5 324.058V323.058L842 323.058V324.058ZM-15.5 308.06L842 308.06V307.06L-15.5 307.06V308.06ZM842 292.063L-15.5 292.063V291.063L842 291.063V292.063ZM-15.5 276.065L842 276.065V275.065L-15.5 275.065V276.065ZM842 260.068L-15.5 260.068V259.068L842 259.068V260.068ZM-15.5 244.07L842 244.07V243.07L-15.5 243.07V244.07ZM842 228.073L-15.5 228.073V227.073L842 227.073V228.073ZM-15.5 212.075L842 212.075V211.075L-15.5 211.075V212.075ZM842 196.077L-15.5 196.077V195.077L842 195.077V196.077ZM-15.5 180.08L842 180.08V179.08L-15.5 179.08V180.08ZM842 164.082L-15.5 164.082V163.082L842 163.082V164.082ZM-15.5 148.085L842 148.085V147.085L-15.5 147.085V148.085ZM842 132.087L-15.5 132.087V131.087L842 131.087V132.087ZM-15.5 116.089L842 116.09V115.09L-15.5 115.089V116.089ZM842 100.092L-15.5 100.092V99.0919L842 99.0919V100.092ZM-15.5 84.0943L842 84.0944V83.0944L-15.5 83.0943V84.0943ZM842 68.0968L-15.5 68.0967V67.0967L842 67.0968V68.0968ZM-15.5 52.0991L842 52.0992V51.0992L-15.5 51.0991V52.0991ZM842 36.1016L-15.5 36.1016V35.1016L842 35.1016V36.1016ZM-15.5 20.1039L842 20.104V19.104L-15.5 19.1039V20.1039ZM842 4.10644L-15.5 4.10638V3.10638L842 3.10644V4.10644ZM-15.5 -11.8912L842 -11.8911V-12.8911L-15.5 -12.8912V-11.8912Z" fill="black" fill-opacity="0.06"/>
</g>
</svg>
